symbols/web/library_books/materialsymbolsrounded/library_books_wght100grad200fill1_24px.svg

<svg xmlns="http://www.w3.org/2000/svg" height="24" width="24"><path d="M10.875 10.55h5.5q.225 0 .388-.163.162-.162.162-.387t-.162-.388q-.163-.162-.388-.162h-5.5q-.225 0-.387.162-.163.163-.163.388t.163.387q.162.163.387.163Zm0 3.4h2.7q.225 0 .388-.163.162-.162.162-.387t-.162-.388q-.163-.162-.388-.162h-2.7q-.225 0-.387.162-.163.163-.163.388t.163.387q.162.163.387.163Zm0-6.8h5.5q.225 0 .388-.163.162-.162.162-.387t-.162-.387q-.163-.163-.388-.163h-5.5q-.225 0-.387.163-.163.162-.163.387t.163.387q.162.163.387.163Zm-2.5 10.3q-.925 0-1.537-.613-.613-.612-.613-1.537V4.7q0-.925.613-1.538.612-.612 1.537-.612h10.6q.925 0 1.538.612.612.613.612 1.538v10.6q0 .925-.612 1.537-.613.613-1.538.613Zm-3.35 3.35q-.925 0-1.537-.612-.613-.613-.613-1.538V7.375q0-.275.2-.475.2-.2.475-.2.275 0 .475.2.2.2.2.475V18.65q0 .35.225.575.225.225.575.225H16.3q.275 0 .475.2.2.2.2.475 0 .275-.2.475-.2.2-.475.2Z"/></svg>

<svg xmlns="http://www.w3.org/2000/svg" height="24" width="24"><path d="M10.875 10.55H16.375Q16.6 10.55 16.763 10.387Q16.925 10.225 16.925 10Q16.925 9.775 16.763 9.612Q16.6 9.45 16.375 9.45H10.875Q10.65 9.45 10.488 9.612Q10.325 9.775 10.325 10Q10.325 10.225 10.488 10.387Q10.65 10.55 10.875 10.55ZM10.875 13.95H13.575Q13.8 13.95 13.963 13.787Q14.125 13.625 14.125 13.4Q14.125 13.175 13.963 13.012Q13.8 12.85 13.575 12.85H10.875Q10.65 12.85 10.488 13.012Q10.325 13.175 10.325 13.4Q10.325 13.625 10.488 13.787Q10.65 13.95 10.875 13.95ZM10.875 7.15H16.375Q16.6 7.15 16.763 6.987Q16.925 6.825 16.925 6.6Q16.925 6.375 16.763 6.213Q16.6 6.05 16.375 6.05H10.875Q10.65 6.05 10.488 6.213Q10.325 6.375 10.325 6.6Q10.325 6.825 10.488 6.987Q10.65 7.15 10.875 7.15ZM8.375 17.45Q7.45 17.45 6.838 16.837Q6.225 16.225 6.225 15.3V4.7Q6.225 3.775 6.838 3.162Q7.45 2.55 8.375 2.55H18.975Q19.9 2.55 20.513 3.162Q21.125 3.775 21.125 4.7V15.3Q21.125 16.225 20.513 16.837Q19.9 17.45 18.975 17.45ZM5.025 20.8Q4.1 20.8 3.488 20.188Q2.875 19.575 2.875 18.65V7.375Q2.875 7.1 3.075 6.9Q3.275 6.7 3.55 6.7Q3.825 6.7 4.025 6.9Q4.225 7.1 4.225 7.375V18.65Q4.225 19 4.45 19.225Q4.675 19.45 5.025 19.45H16.3Q16.575 19.45 16.775 19.65Q16.975 19.85 16.975 20.125Q16.975 20.4 16.775 20.6Q16.575 20.8 16.3 20.8Z"/></svg>
